source/img/logo.svg

<svg width="50" height="23" viewBox="0 0 50 23" fill="none" xmlns="http://www.w3.org/2000/svg">
<path fill-rule="evenodd" clip-rule="evenodd" d="M5.07136 1.08828C6.73154 1.08828 8.03514 1.87635 8.98219 3.4525C9.11584 3.62959 9.19504 3.84967 9.19504 4.08815C9.19504 4.67351 8.71793 5.14804 8.12939 5.14804C7.64489 5.14804 7.23592 4.82647 7.10645 4.38622C6.81898 3.93041 6.54341 3.62602 6.27973 3.47304C5.96257 3.27115 5.55344 3.17021 5.05233 3.17021C4.43704 3.17021 3.92642 3.3437 3.52046 3.69069C3.11449 4.03137 2.91151 4.46037 2.91151 4.9777C2.91151 5.69061 3.44433 6.26471 4.50999 6.70003L5.97526 7.29622C7.16778 7.77569 8.03996 8.36084 8.59182 9.05166C9.14367 9.74249 9.4196 10.5894 9.4196 11.5926C9.4196 12.9364 8.96924 14.0467 8.06851 14.9237C7.16143 15.8069 6.03553 16.2485 4.69077 16.2485C3.41579 16.2485 2.36283 15.8731 1.53187 15.1224C0.713602 14.3716 0.202982 13.3149 0 11.9522L0.0200998 11.9478C0.00690496 11.8787 0 11.8074 0 11.7345C0 11.1073 0.511188 10.5989 1.14177 10.5989C1.77235 10.5989 2.28354 11.1073 2.28354 11.7345L2.28349 11.7454C2.3888 12.4509 2.55374 12.9488 2.77831 13.2392C3.23502 13.8701 3.90104 14.1855 4.7764 14.1855C5.46781 14.1855 6.04186 13.9552 6.49857 13.4947C6.95528 13.0341 7.18363 12.4506 7.18363 11.744C7.18363 11.4601 7.14399 11.1998 7.0647 10.9633C6.98541 10.7267 6.86172 10.509 6.69362 10.3103C6.52553 10.1116 6.30828 9.92544 6.04186 9.75195C5.77545 9.57845 5.4583 9.41285 5.09039 9.25512L3.67269 8.6684C1.6619 7.823 0.656518 6.58648 0.656518 4.95878C0.656518 3.86103 1.07833 2.9431 1.92198 2.20495C2.76562 1.4605 3.81541 1.08828 5.07136 1.08828ZM12.7421 22.4697C13.2827 22.4697 13.7378 22.1058 13.8733 21.6108L14.4897 20.1396L21.4272 6.76627H19.0105L16.3654 12.0657L13.53 6.76627H11.0466L15.2141 14.2707L11.8248 20.5779C11.737 20.6875 11.6686 20.8132 11.6249 20.9499L11.5985 20.9991H11.6104C11.584 21.0962 11.5699 21.1984 11.5699 21.3038C11.5699 21.9477 12.0948 22.4697 12.7421 22.4697ZM23.7964 6.76627H25.9467V7.61797C26.6952 6.87983 27.5388 6.51076 28.4776 6.51076C29.556 6.51076 30.3964 6.84828 30.999 7.52334C31.5192 8.09745 31.7793 9.03431 31.7793 10.3339V15.9835H29.6289V10.8355C29.6289 9.92701 29.5021 9.29929 29.2483 8.9523C29.0009 8.599 28.5506 8.42235 27.8972 8.42235C27.1868 8.42235 26.6825 8.65578 26.3844 9.12264C26.0926 9.58319 25.9467 10.3876 25.9467 11.5358V15.9835H23.7964V6.76627ZM37.6023 8.75357V15.9835H35.4615V8.75357H34.548V6.76627H35.4615V3.38787H37.6023V6.76627H39.2674V8.75357H37.6023ZM42.0266 0H44.1675V7.5328C44.9286 6.85144 45.7691 6.51076 46.6889 6.51076C47.7355 6.51076 48.5728 6.84828 49.2008 7.52334C49.7336 8.11007 50 9.04692 50 10.3339V15.9835H47.8592V10.5327C47.8592 9.79453 47.7276 9.25986 47.4643 8.92864C47.2011 8.59742 46.7777 8.43182 46.1941 8.43182C45.4456 8.43182 44.9191 8.66209 44.6147 9.12264C44.3165 9.5895 44.1675 10.3907 44.1675 11.5263V15.9835H42.0266V0Z" fill="#3E4056"/>
</svg>

<svg width="50" height="23" fill="none" xmlns="http://www.w3.org/2000/svg"><path fill-rule="evenodd" clip-rule="evenodd" d="M5.071 1.088c1.66 0 2.964.788 3.911 2.365.134.177.213.397.213.635a1.067 1.067 0 01-2.089.298c-.287-.456-.563-.76-.826-.913-.317-.202-.727-.303-1.228-.303-.615 0-1.126.174-1.532.52a1.61 1.61 0 00-.608 1.288c0 .713.532 1.287 1.598 1.722l1.465.596c1.193.48 2.065 1.065 2.617 1.756.552.69.828 1.537.828 2.54 0 1.344-.45 2.455-1.351 3.332-.908.883-2.033 1.325-3.378 1.325-1.275 0-2.328-.376-3.16-1.127-.817-.75-1.328-1.807-1.531-3.17l.02-.004a1.136 1.136 0 011.122-1.35c.63 0 1.142.51 1.142 1.136v.011c.105.706.27 1.204.494 1.494.457.631 1.123.946 1.998.946.692 0 1.266-.23 1.723-.69.456-.46.685-1.044.685-1.751 0-.284-.04-.544-.12-.78a1.978 1.978 0 00-.37-.654 2.962 2.962 0 00-.652-.558 6.29 6.29 0 00-.952-.497l-1.417-.587C1.662 7.823.657 6.586.657 4.958c0-1.097.421-2.015 1.265-2.753.844-.745 1.893-1.117 3.15-1.117zm7.671 21.382c.54 0 .996-.364 1.131-.86l.617-1.47 6.937-13.374h-2.416l-2.646 5.3-2.835-5.3h-2.483l4.167 7.505-3.39 6.307a1.16 1.16 0 00-.2.372l-.026.05h.012a1.17 1.17 0 001.132 1.47zM23.796 6.766h2.15v.852c.75-.738 1.593-1.107 2.532-1.107 1.078 0 1.918.337 2.521 1.012.52.574.78 1.511.78 2.81v5.65h-2.15v-5.148c0-.908-.127-1.536-.38-1.883-.248-.353-.698-.53-1.352-.53-.71 0-1.214.234-1.513.7-.291.461-.437 1.266-.437 2.414v4.447h-2.15V6.766zm13.806 1.988v7.23h-2.14v-7.23h-.914V6.766h.913V3.388h2.141v3.378h1.665v1.988h-1.665zM42.027 0h2.14v7.533C44.93 6.85 45.77 6.51 46.69 6.51c1.047 0 1.884.337 2.512 1.012.533.587.799 1.524.799 2.81v5.65h-2.14v-5.45c0-.738-.132-1.273-.396-1.604-.263-.332-.686-.497-1.27-.497-.748 0-1.275.23-1.58.69-.297.467-.447 1.269-.447 2.404v4.457h-2.14V0z" fill="#3E4056"/></svg>
